src/assets/svg/placemark.svg

<svg width="23" height="24" viewBox="0 0 23 24" fill="none" xmlns="http://www.w3.org/2000/svg">
<path d="M18.7058 10.2984C18.7058 6.03127 15.4291 2.57141 11.3862 2.57141C7.34331 2.57141 4.06653 6.03127 4.06653 10.2984C4.06653 13.3393 5.83885 17.0098 9.33697 21.3688C10.2942 22.5615 11.9876 22.7107 13.1194 21.7018C13.2333 21.6003 13.339 21.4889 13.4354 21.3688C16.9335 17.0098 18.7058 13.3393 18.7058 10.2984ZM12.069 20.3929C11.6231 20.7903 10.956 20.7316 10.5789 20.2617C7.30622 16.1837 5.69312 12.8429 5.69312 10.2984C5.69312 6.97733 8.24233 4.2857 11.3862 4.2857C14.53 4.2857 17.0793 6.97733 17.0793 10.2984C17.0793 12.8429 15.4662 16.1837 12.1935 20.2617C12.1555 20.309 12.1138 20.3529 12.069 20.3929ZM8.13301 10.2857C8.13301 8.39264 9.58997 6.85713 11.3862 6.85713C13.1824 6.85713 14.6394 8.39264 14.6394 10.2857C14.6394 12.1788 13.1824 13.7143 11.3862 13.7143C9.58997 13.7143 8.13301 12.1788 8.13301 10.2857ZM9.7596 10.2857C9.7596 11.232 10.4883 12 11.3862 12C12.2841 12 13.0128 11.232 13.0128 10.2857C13.0128 9.33941 12.2841 8.57141 11.3862 8.57141C10.4883 8.57141 9.7596 9.33941 9.7596 10.2857Z" fill="#E10303"/>
</svg>

<svg width="23" height="24" fill="none" xmlns="http://www.w3.org/2000/svg">
  <path
    d="M18.706 10.298c0-4.267-3.277-7.727-7.32-7.727s-7.32 3.46-7.32 7.727c0 3.041 1.773 6.712 5.271 11.07.957 1.194 2.65 1.343 3.782.334a2.76 2.76 0 00.316-.333c3.498-4.36 5.27-8.03 5.27-11.07zm-6.637 10.095a1.02 1.02 0 01-1.49-.131c-3.273-4.078-4.886-7.42-4.886-9.964 0-3.32 2.55-6.012 5.693-6.012 3.144 0 5.693 2.691 5.693 6.012 0 2.545-1.613 5.886-4.886 9.964-.037.047-.08.09-.124.13zM8.133 10.286c0-1.893 1.457-3.429 3.253-3.429s3.253 1.536 3.253 3.429c0 1.893-1.457 3.428-3.253 3.428s-3.253-1.535-3.253-3.428zm1.627 0c0 .946.728 1.714 1.626 1.714.898 0 1.627-.768 1.627-1.714 0-.947-.729-1.715-1.627-1.715S9.76 9.34 9.76 10.286z"
    fill="#E10303" /></svg>
